**kern
*clefF4
*k[]
*M4/4
=1
*^
2c	2C 2E 2G
2B	2D 2F 2F
*v	*v
=2
1C 1E 1G 1c
=3||
*^
*	*^
2c	1E 1E	2AA\
2B	.	[2GG#X\
*	*v	*v
=4	=4
1E 1E 1c	2GG#]
.	2AA
=5||	=5||
1E 1E [1G	2C
.	2BB 2D 2F
*v	*v
=6
1C 1C 1E 1G]
=7||
*^
*	*^
2G	1E 1E	2C\
2F 2A	.	2BB\ 2D
*v	*v	*v
=8
1C 1E 1E 1G
=9||
*^
*	*^
2G	1E 1E	2C\
2F 2A-X	.	2BB\ 2D
*v	*v	*v
=10
1C 1E 1E 1G
=11||
*^
[1G#X [1B	2r
.	2E
!!linebreak:original
=12	=12
2G#] 2B]	1C 1E
2A 2A	.
*v	*v
==
*-
!!!system-decoration: [(s1
